!!!COA:	Josquin des Prez
!!!CDT:	~1450-1521/08/27
!!!OPR:	Missa D'ung aultre amer
!!!ONM:	3
!!!OTL:	Credo
!!!AGN:	Mass; Credo; Missa Brevis
!!!SCT:	NJE 7.3
!!!SCA:	New Josquin Edition 7.3
!!!voices:	4
!!!voices-OPR:	4
**kern	**kern	**kern	**kern
*staff4	*staff3	*staff2	*staff1
*Ivox	*Ivox	*Ivox	*Ivox
*I"Bassus	*I"Tenor	*I"Altus	*I"Superius
*I'B	*I'T	*I'A	*I'S
*clefF4	*clefGv2	*clefGv2	*clefG2
*k[b-]	*k[b-]	*k[b-]	*k[b-]
*M2/1	*M2/1	*M2/1	*M2/1
*met(C|)	*met(C|)	*met(C|)	*met(C|)
=1-	=1-	=1-	=1-
!!section: Patrem
!!!OMD: Patrem
1GG	1.G	1G	1g
2GG/	.	2B-\	2g/
2GG/	2E/	2B-\	2g/
=2	=2	=2	=2
2D\	1F	2A/	2a/
2D\	.	2D/	2b-\
1C	1G	1E	1cc
=3	=3	=3	=3
0BB-	0B-	2F/	2dd\
.	.	2F/	2dd\
.	.	2F/	2dd\
.	.	2G/	2dd\
=4	=4	=4	=4
0r	0c	2.A/	2.cc\
.	.	4G/	4b-\
.	.	2F/	2a/
.	.	2E/	2g/
=5	=5	=5	=5
2.D\	1.d	1D	2f/
.	.	.	2f/
4D\	.	.	.
2D\	.	1r	2f/
2D\	2c\	.	2f/
=6	=6	=6	=6
1GG	1B-	0r	2g/
.	.	.	2d/
1r	1A	.	2e/
.	.	.	2f/
=7	=7	=7	=7
0r	1.G	2r	2g/
.	.	1B-	1d
.	4F/	2G/	2d/
.	4E/	.	.
=8	=8	=8	=8
0r	0D	2F/	2.d/
.	.	2F/	.
.	.	.	4c/
.	.	2G/	2B-/
.	.	2F#i/	2A/
=9	=9	=9	=9
1GG	1B-	1G	2G/
.	.	.	1d
1D	1A	2r	.
.	.	2F/	2d/
=10	=10	=10	=10
2GG/	1B-	1G	2d/
2GG/	.	.	2d/
2GG/	1G	1B-	2d/
2GG/	.	.	2d/
=11	=11	=11	=11
1D	2F/	2A/	2d/
.	1F	1d	2d/
1D	.	.	1A
.	4E/	2d\	.
.	4F/	.	.
=12	=12	=12	=12
1GG	1G	2d\	1B-
.	.	2d\	.
[1G	[1C	1e-i	1c
=13	=13	=13	=13
1G]	1C]	1e-i	2r
.	.	.	2c/
1GG	1G	[1d	2B-/
.	.	.	2G/
=14	=14	=14	=14
1r	2F/	1d]	2A/
.	1G	.	2G/
1G	.	1r	2B-/
.	4F/	.	2c/
.	4E/	.	.
=15	=15	=15	=15
2A\	2F/	0r	1d
2B-\	2D/	.	.
1c	1C	.	1e-i
=16	=16	=16	=16
1.B-	0G	1r	0d
.	.	1d	.
4A\	.	.	.
4G\	.	.	.
=17	=17	=17	=17
1F	1D	2d\	0r
.	.	2d\	.
1D	1F	2d\	.
.	.	2d\	.
=18	=18	=18	=18
0AA	0E	2c\	0r
.	.	2c\	.
.	.	2c\	.
.	.	2c\	.
=19	=19	=19	=19
2r	0D	2.d\	2f/
2D\	.	.	2f/
.	.	4c\	.
2D\	.	2B-\	2f/
2D\	.	2A/	2f/
=20	=20	=20	=20
2BB-/	0B-	1G	2g/
1GG	.	.	2g/
.	.	1B-	2dd\
2GG/	.	.	2dd\
=21	=21	=21	=21
2AA/	1c	2A/	2cc\
2BB-/	.	4G/	4b-\
.	.	4F/	4a/
2C/	1c	1E	2g/
2AA/	.	.	2cc\
=22	=22	=22	=22
2BB-/	0d	0D	2b-\
2C/	.	.	4a/
.	.	.	4g/
2D\	.	.	2f/
2BB-/	.	.	2dd\
=23	=23	=23	=23
2C/	0e-	0r	2cc\
2D\	.	.	4b-\
.	.	.	4a/
2E-i\	.	.	1g
2C/	.	.	.
=24	=24	=24	=24
1D	1d	0r	0f
1D	[1f	.	.
=25	=25	=25	=25
0r	1f]	2d\	0r
.	.	2d\	.
.	1B-	2d\	.
.	.	[2f\	.
=26	=26	=26	=26
1F	0A	2f\]	0r
.	.	2d\	.
1F	.	1c	.
=27	=27	=27	=27
1G	0B-	2r	0r
.	.	2B-\	.
1G	.	2B-\	.
.	.	2B-\	.
=28	=28	=28	=28
2F\	1f	2c\	0r
2F\	.	2A/	.
1G	1e	1B-	.
=29	=29	=29	=29
1F	1f	1c	1r
1G	[1d	1B-	1g
=30	=30	=30	=30
1F	1d]	1r	1a
1G	1e	1B-	1b-
=31	=31	=31	=31
1F	1f	2c\	2a/
.	.	2f\	2.dd\
1G	1B-	2d\	.
.	.	.	4cc\
.	.	2e\	[2b-\
=32	=32	=32	=32
1F	0c	1.f	2b-\]
.	.	.	4a/
.	.	.	4g/
1F	.	.	1a
.	.	2f\	.
=33	=33	=33	=33
1BB-	1.B-	1f	2d/
.	.	.	2d/
1r	.	1r	2d/
.	2A/	.	2c/
=34	=34	=34	=34
0r	1G	0r	1B-
.	1F	.	1A
=35	=35	=35	=35
0r	0G	0r	2G/
.	.	.	2d/
.	.	.	2d/
.	.	.	2d/
=36	=36	=36	=36
0r	0D	1F	2d/
.	.	.	2c/
.	.	1F	2B-/
.	.	.	2A/
=37	=37	=37	=37
0r	0E	2.G/	1G
.	.	4A/	.
.	.	2B-\	1r
.	.	[2c\	.
=38	=38	=38	=38
0r	0F	4c\]	0r
.	.	4B-\	.
.	.	4A/	.
.	.	4G/	.
.	.	1A	.
=39	=39	=39	=39
1GG	0G	2G/	1d
.	.	2G/	.
2GG/	.	2D/	2d/
2GG/	.	2D/	2d/
=40	=40	=40	=40
2GG/	1B-	2G/	2d/
2GG/	.	2G/	2d/
2D\	1A	2F/	2d/
2D\	.	2F/	2d/
=41	=41	=41	=41
2C/	0c	2G/	2e/
2F\	.	2A/	2f/
2E\	.	2G/	2g/
2F\	.	2c\	2a/
=42	=42	=42	=42
1BB-	1d	1B-	2d/
.	.	.	2f/
1E-	2B-\	2r	1g
.	2c\	2G/	.
=43	=43	=43	=43
1D	2.d\	2A/	1f
.	.	2B-\	.
.	4c\	.	.
1C	2A/	1c	1e
.	[2G/	.	.
=44	=44	=44	=44
2BB-/	2G/]	1d	2d/
2GG/	2B-\	.	1g
1D	1A	1d	.
.	.	.	2f#i/
=45	=45	=45	=45
1GG	[0Gl	1B-	1g
2r	.	2r	2r
2GG/	.	2B-\	2d/
=46	=46	=46	=46
1C	0G_	1c	1e-i
1GG	.	1B-	1d
=47	=47	=47	=47
2r	0G_	2r	2r
2C/	.	2E-i/	2c/
1C	.	1E-i	1c
=48	=48	=48	=48
1GG	0G_	1D	1B-
1r	.	1r	1r
=49	=49	=49	=49
1C	0G_	2E-i/	1c
.	.	2E-i/	.
2C/	.	2E-i/	2c/
[2C/	.	2E-i/	[2c/
=50	=50	=50	=50
2C/]	0G_	2E-i/	2c/]
2C/	.	2E-i/	2c/
2C/	.	[1E-i	2c/
2C/	.	.	2c/
=51	=51	=51	=51
2C/	0G_	2E-/]	2c/
2C/	.	2C/	2c/
1C	.	1E-i	1c
=52	=52	=52	=52
1GG	0G_	1D	2d/
.	.	.	2d/
2r	.	2r	2d/
2GG/	.	2D/	2B-/
=53	=53	=53	=53
2C/	0G_	2E-i/	2c/
2BB-/	.	2D/	2d/
2GG/	.	2G/	2B-/
2C/	.	2E-i/	2c/
=54	=54	=54	=54
2BB-/	0G_	2D/	2d/
2GG/	.	2G/	2B-/
2C/	.	2E-i/	2c/
2BB-/	.	2D/	2d/
=55	=55	=55	=55
2GG/	0G_	2G/	2B-/
2C/	.	2C/	2c/
2C/	.	2c\	1e-i
2C/	.	2c\	.
=56	=56	=56	=56
0GGl	0G]	0B-l	0dl
!!LO:LB:i:g=z
=57||	=57||	=57||	=57||
*>B	*>B	*>B	*>B
*k[b-]	*k[b-]	*k[b-]	*k[b-]
*M2/1	*M2/1	*M2/1	*M2/1
*met(C|)	*met(C|)	*met(C|)	*met(C|)
!!section: Et resurrexit
!!!OMD: Et resurrexit
0r	1.G	1d	0r
.	.	2B-\	.
.	2E/	2c\	.
=58	=58	=58	=58
0r	1F	1A	0r
.	1G	2G/	.
.	.	[2d\	.
=59	=59	=59	=59
1r	0B-	4d\]	1r
.	.	4c\	.
.	.	1B-	.
1G	.	.	1b-
.	.	4A/	.
.	.	4G/	.
=60	=60	=60	=60
2A\	0c	1F	2a/
2F\	.	.	2a/
1E	.	1G	1g
=61	=61	=61	=61
1D	1.d	1A	2f/
.	.	.	2f/
1r	.	1r	2b-\
.	2c\	.	[2a/
=62	=62	=62	=62
0r	1B-	0r	4a/]
.	.	.	4g/
.	.	.	1g
.	1A	.	.
.	.	.	2f#i/
=63	=63	=63	=63
2r	1.G	0r	0g
2B-\	.	.	.
2B-\	.	.	.
2B-\	4F/	.	.
.	4E/	.	.
=64	=64	=64	=64
2B-\	0D	2r	0r
2B-\	.	2d\	.
1A	.	2d\	.
.	.	2d\	.
=65	=65	=65	=65
1G	1B-	2d\	0r
.	.	2d\	.
1r	1A	2e\	.
.	.	2f\	.
=66	=66	=66	=66
2r	1B-	2g\	2r
2GG/	.	2G/	2d/
2GG/	1G	2B-\	2d/
2GG/	.	2B-\	2d/
=67	=67	=67	=67
2D\	2F/	2B-\	2d/
2D\	1F	2B-\	2d/
2D\	.	2A/	2d/
2D\	4E/	2A/	2d/
.	4F/	.	.
=68	=68	=68	=68
2GG/	1G	2G/	2d/
2GG/	.	2G/	2d/
2AA/	[1C	2E/	2c/
2AA/	.	2F/	2c/
=69	=69	=69	=69
2FF/	1C]	2F/	2A/
2AA/	.	2C/	2A/
2GG/	1G	2D/	2B-/
2GG/	.	2D/	2B-/
=70	=70	=70	=70
2AA/	2F/	2C/	2c/
2BB-/	1G	2D/	2B-/
1C	.	2E/	2G/
.	4F/	2E/	[2A/
.	4E/	.	.
=71	=71	=71	=71
2D\	2F/	2D/	2A/]
2BB-/	2D/	1G	2G/
1AA	1C	.	1c
.	.	2F#i/	.
=72	=72	=72	=72
0GG	0G	1G	2B-/
.	.	.	2B-/
.	.	1r	2B-/
.	.	.	2B-/
=73	=73	=73	=73
0D	1D	0r	2A/
.	.	.	2.d/
.	1F	.	.
.	.	.	4e/
.	.	.	2f/
=74	=74	=74	=74
0r	0E	0r	4g/
.	.	.	4f/
.	.	.	4e/
.	.	.	4d/
.	.	.	2.c#i/
.	.	.	4Bni/
=75	=75	=75	=75
2r	0D	2F/	[0d
2A\	.	2F/	.
2A\	.	2F/	.
2A\	.	2F/	.
=76	=76	=76	=76
2B-\	0B-	2G/	0d]
1G	.	1B-	.
2B-\	.	2G/	.
=77	=77	=77	=77
2A\	1c	1F	0r
2F\	.	.	.
1E	1c	1G	.
=78	=78	=78	=78
0D	0d	0A	2r
.	.	.	2f/
.	.	.	2f/
.	.	.	2f/
=79	=79	=79	=79
0r	0e-i	0r	4g/
.	.	.	4f/
.	.	.	4e-i/
.	.	.	4d/
.	.	.	2.c/
.	.	.	4B-/
=80	=80	=80	=80
2r	1d	2r	2d/
2BB-/	.	2B-\	2d/
2BB-/	[1f	2B-\	2d/
2BB-/	.	2B-\	2d/
=81	=81	=81	=81
2BB-/	1f]	2F/	2d/
2BB-/	.	2F/	2d/
2BB-/	1B-	2F/	2d/
2BB-/	.	2G/	2d/
=82	=82	=82	=82
2F\	0A	2A/	2c/
2D\	.	1F	2d/
1C	.	.	1e
.	.	2E/	.
=83	=83	=83	=83
2BB-/	0B-	2F/	1d
2BB-/	.	2F/	.
2E-i\	.	2G/	1r
2E-i\	.	2G/	.
=84	=84	=84	=84
2D\	1f	2F/	0r
2BB-/	.	2B-\	.
2C/	1e	2G/	.
2C/	.	2A/	.
=85	=85	=85	=85
0BB-	1f	1D	2f/
.	.	.	2f/
.	[1d	1r	2f/
.	.	.	2f/
=86	=86	=86	=86
0r	1d]	0r	2f/
.	.	.	2f/
.	1e	.	2g/
.	.	.	2g/
=87	=87	=87	=87
0r	1f	0r	2f/
.	.	.	2f/
.	1B-	.	2g/
.	.	.	[2b-\
=88	=88	=88	=88
2F\	0c	2r	2b-\]
2F\	.	2F/	4a/
.	.	.	4g/
2F\	.	2F/	1a
2F\	.	2F/	.
=89	=89	=89	=89
2BB-/	1.B-	2F/	0r
2E-i\	.	2G/	.
2D\	.	2F/	.
[2C/	2A/	[2E/	.
=90	=90	=90	=90
2C/]	1G	4E/]	2g/
.	.	4D/	.
2BB-/	.	1D	2g/
1AA	1F#i	.	2cc\
.	.	2C/	2cc\
=91	=91	=91	=91
1GG	0G	1D	2b-\
.	.	.	2b-\
1r	.	2r	2b-\
.	.	2d\	2b-\
=92	=92	=92	=92
2r	0D	2.d\	1a
2F\	.	.	.
.	.	4c\	.
2F\	.	2B-\	1r
2F\	.	2A/	.
=93	=93	=93	=93
1G	0E	2.G/	2r
.	.	.	2g/
.	.	4A/	.
1r	.	2B-\	2g/
.	.	2c\	2g/
=94	=94	=94	=94
0r	0F	1A	2a/
.	.	.	2a/
.	.	1r	2a/
.	.	.	2a/
=95	=95	=95	=95
2r	0G	0r	2.b-\
2G\	.	.	.
.	.	.	4a/
2G\	.	.	1g
2G\	.	.	.
=96	=96	=96	=96
2G\	1B-	0r	1r
2G\	.	.	.
2F\	1A	.	2r
[2A\	.	.	2a/
=97	=97	=97	=97
2A\]	0c	1F	1a
2F\	.	.	.
1E	.	2G/	1g
.	.	2G/	.
=98	=98	=98	=98
1D	1d	1A	1f
1r	2B-\	1r	2g/
.	2c\	.	2e/
=99	=99	=99	=99
0r	2.d\	0r	2f/
.	.	.	2g/
.	4c\	.	.
.	2A/	.	2a/
.	2G/	.	2d/
=100	=100	=100	=100
0r	2G/	0r	2e/
.	2B-\	.	1g
.	1A	.	.
.	.	.	2f#i/
=101	=101	=101	=101
1r	[0Gl	2r	1g
.	.	2d\	.
2r	.	2e-i\	2r
2GG/	.	2d\	2d/
=102	=102	=102	=102
2C/	0G_	2c\	2e-/
2GG/	.	2B-\	2d/
2C/	.	2e-i\	2c/
2GG/	.	2d\	2B-/
=103	=103	=103	=103
2C/	0G_	2c\	2e-/
2GG/	.	2B-\	2d/
2C/	.	2e-i\	2c/
2GG/	.	2d\	2B-/
=104	=104	=104	=104
0C	0G_	2c\	1.e-i
.	.	2G/	.
.	.	1c	.
.	.	.	4d/
.	.	.	4c/
=105	=105	=105	=105
0GGl	0G]	0B-l	0dl
==	==	==	==
*-	*-	*-	*-
!!!RDF**kern: l=long note in original notation
!!!RDF**kern: i=editorial accidental
!!!RDF**kern: V=start of tuplet marker
!!!RDF**kern: Z=end of tuplet marker
!!!ENC:	Jesse Rodin; Victoria Chang 2012/02/24
!!!END:	2012/02/24/
!!!EED:	Jesse Rodin
!!!EEV:	2012/03/22/
!!attribution-level@Jos: 3 (tricky)
!!!ONB:	Translated from MusicXML and edited on 2012/03/22/ by Craig Sapp
!!muse2ps: T^@{OPR}^u^@{ONM}{. }@{OTL}^C^@{COA}?\n@{SCT}^i2I150v95,85,85,150Q16
